X:1
T:C minor Oliver Holden, 1800
T:Thomas Scott, 1772 88. 88. (L. M.)
T:Ephesus No copyright. Treble-Tenor-Bass from Plain Psalmody , 1800; Counter by B. C. Johnston, 2015..
%%score [ 1 2 3 4 ]
L:1/8
M:4/4
K:Eb
V:1 treble nm="Treble" snm="Tr."
V:2 treble nm="Counter" snm="C."
V:3 treble-8 nm="Tenor" snm="T."
V:4 bass nm="Bass" snm="B."
V:1
 G4 | c2 G2 c2 c2 | e2 d2 c2 G2 | A2 G2 F2 G2 | F4 E4 | D6 E2 | G2 G2 c2 e2 | d2 c2 =B3 B | %8
 c2 G2 A2 F2 | G4 =B4 | c8 |] %11
V:2
 G4 | E2 G2 G2 G2 | E2 D2 E2 G2 | D2 E2 F2 G2 | F4 G4 | G6 c2 | c2 c2 G2 G2 | D2 E2 D3 G | %8
w: 1.Th'up-|lif- ted eye and|ben- ded knee Are|but vain ho- mage,|Lord, to|Thee: In|vain our lips Thy|praise pro- long, The|
 G2 c2 =B2 F2 | E4 D4 | C8 |] %11
w: heart a stran- ger|to the|song.|
V:3
 c4 | e2 c2 G2 e2 | c2 =B2 c2 e2 | d2 c2 =B2 c2 | d4 c4 | =B6 G2 | c2 c2 G2 c2 | =B2 c2 d3 d | %8
 e2 c2 d2 =B2 | G4 G4 | G8 |] %11
V:4
 C,4 | C,2 C,2 C,2 C,2 | C,2 G,2 C,2 C,2 | =B,,2 C,2 D,2 C,2 | =B,,4 C,4 | G,,6 C,2 | %6
 C,2 C,2 C,2 C,2 | G,2 G,2 G,3 G, | C,2 C,2 =B,,2 B,,2 | C,4 G,,4 | C,8 |] %11

